X: 4256
M: 6/8
L: 1/8
K: G
|:\
deg age | edB deg | BAG gfe | dGB A2G :|
|:\
g2d a2d | bag gfe | ded dGA | BdB A2G |\
g2d a2d | bag gfe | dBG GBd | gab a2g :|


